public/icons/truck-icon.svg

<svg width="100" height="100" viewBox="0 0 100 100" fill="none" xmlns="http://www.w3.org/2000/svg">
<path d="M8.33317 12.5V8.33337C7.2281 8.33337 6.16829 8.77236 5.38689 9.55376C4.60549 10.3352 4.1665 11.395 4.1665 12.5H8.33317ZM54.1665 12.5H58.3332C58.3332 11.395 57.8942 10.3352 57.1128 9.55376C56.3314 8.77236 55.2716 8.33337 54.1665 8.33337V12.5ZM54.1665 37.5V33.3334C53.0614 33.3334 52.0016 33.7724 51.2202 34.5538C50.4388 35.3352 49.9998 36.395 49.9998 37.5H54.1665ZM8.33317 16.6667H54.1665V8.33337H8.33317V16.6667ZM49.9998 12.5V79.1667H58.3332V12.5H49.9998ZM12.4998 70.8334V12.5H4.1665V70.8334H12.4998ZM54.1665 41.6667H74.9998V33.3334H54.1665V41.6667ZM87.4998 54.1667V70.8334H95.8332V54.1667H87.4998ZM58.3332 79.1667V37.5H49.9998V79.1667H58.3332ZM77.9457 82.1125C77.1643 82.8937 76.1047 83.3325 74.9998 83.3325C73.895 83.3325 72.8354 82.8937 72.054 82.1125L66.1623 88.0042C68.5064 90.3476 71.6853 91.664 74.9998 91.664C78.3144 91.664 81.4932 90.3476 83.8373 88.0042L77.9457 82.1125ZM72.054 76.2209C72.8354 75.4397 73.895 75.0009 74.9998 75.0009C76.1047 75.0009 77.1643 75.4397 77.9457 76.2209L83.8373 70.3292C81.4932 67.9858 78.3144 66.6694 74.9998 66.6694C71.6853 66.6694 68.5064 67.9858 66.1623 70.3292L72.054 76.2209ZM27.9457 82.1125C27.1643 82.8937 26.1047 83.3325 24.9998 83.3325C23.895 83.3325 22.8354 82.8937 22.054 82.1125L16.1623 88.0042C18.5064 90.3476 21.6853 91.664 24.9998 91.664C28.3144 91.664 31.4932 90.3476 33.8373 88.0042L27.9457 82.1125ZM22.054 76.2209C22.8354 75.4397 23.895 75.0009 24.9998 75.0009C26.1047 75.0009 27.1643 75.4397 27.9457 76.2209L33.8373 70.3292C31.4932 67.9858 28.3144 66.6694 24.9998 66.6694C21.6853 66.6694 18.5064 67.9858 16.1623 70.3292L22.054 76.2209ZM77.9457 76.2209C78.7623 77.0334 79.1665 78.0959 79.1665 79.1667H87.4998C87.4998 75.975 86.279 72.7667 83.8373 70.3292L77.9457 76.2209ZM79.1665 79.1667C79.1663 80.2717 78.7271 81.3313 77.9457 82.1125L83.8373 88.0042C86.1817 85.6606 87.4991 82.4817 87.4998 79.1667H79.1665ZM66.6665 75H54.1665V83.3334H66.6665V75ZM72.054 82.1125C71.2725 81.3313 70.8334 80.2717 70.8332 79.1667H62.4998C62.4998 82.3584 63.7207 85.5667 66.1623 88.0042L72.054 82.1125ZM70.8332 79.1667C70.8334 78.0617 71.2725 77.0021 72.054 76.2209L66.1623 70.3292C63.818 72.6729 62.5005 75.8518 62.4998 79.1667H70.8332ZM22.054 82.1125C21.2725 81.3313 20.8334 80.2717 20.8332 79.1667H12.4998C12.4998 82.3584 13.7207 85.5667 16.1623 88.0042L22.054 82.1125ZM20.8332 79.1667C20.8334 78.0617 21.2725 77.0021 22.054 76.2209L16.1623 70.3292C13.818 72.6729 12.5005 75.8518 12.4998 79.1667H20.8332ZM54.1665 75H33.3332V83.3334H54.1665V75ZM27.9457 76.2209C28.7623 77.0334 29.1665 78.0959 29.1665 79.1667H37.4998C37.4998 75.975 36.279 72.7667 33.8373 70.3292L27.9457 76.2209ZM29.1665 79.1667C29.1663 80.2717 28.7271 81.3313 27.9457 82.1125L33.8373 88.0042C36.1817 85.6606 37.4991 82.4817 37.4998 79.1667H29.1665ZM87.4998 70.8334C87.4998 71.9384 87.0609 72.9983 86.2794 73.7797C85.498 74.5611 84.4382 75 83.3332 75V83.3334C86.6484 83.3334 89.8278 82.0164 92.172 79.6722C94.5162 77.328 95.8332 74.1486 95.8332 70.8334H87.4998ZM74.9998 41.6667C78.315 41.6667 81.4945 42.9837 83.8387 45.3279C86.1829 47.6721 87.4998 50.8515 87.4998 54.1667H95.8332C95.8332 51.4308 95.2943 48.7218 94.2473 46.1941C93.2004 43.6665 91.6658 41.3699 89.7312 39.4353C87.7967 37.5008 85.5 35.9662 82.9724 34.9192C80.4448 33.8722 77.7357 33.3334 74.9998 33.3334V41.6667ZM4.1665 70.8334C4.1665 74.1486 5.48346 77.328 7.82767 79.6722C10.1719 82.0164 13.3513 83.3334 16.6665 83.3334V75C15.5614 75 14.5016 74.5611 13.7202 73.7797C12.9388 72.9983 12.4998 71.9384 12.4998 70.8334H4.1665Z" fill="#1A4F8E"/>
</svg>

<svg xmlns="http://www.w3.org/2000/svg" width="100" height="100" fill="none"><path fill="#1A4F8E" d="M8.333 12.5V8.333A4.167 4.167 0 0 0 4.167 12.5zm45.834 0h4.166a4.167 4.167 0 0 0-4.166-4.167zm0 25v-4.167A4.167 4.167 0 0 0 50 37.5zM8.332 16.667h45.834V8.333H8.332zM50 12.5v66.667h8.333V12.5zM12.5 70.833V12.5H4.167v58.333zm41.667-29.166H75v-8.334H54.167zm33.333 12.5v16.666h8.333V54.167zm-29.167 25V37.5H50v41.667zm19.613 2.945a4.167 4.167 0 0 1-5.892 0l-5.892 5.892a12.5 12.5 0 0 0 17.675 0zm-5.892-5.891a4.166 4.166 0 0 1 5.892 0l5.891-5.892a12.5 12.5 0 0 0-17.675 0zm-44.108 5.891a4.167 4.167 0 0 1-5.892 0l-5.892 5.892a12.5 12.5 0 0 0 17.675 0zm-5.892-5.891a4.166 4.166 0 0 1 5.892 0l5.891-5.892a12.5 12.5 0 0 0-17.675 0zm55.892 0a4.13 4.13 0 0 1 1.22 2.946H87.5c0-3.192-1.221-6.4-3.663-8.838zm1.22 2.946c0 1.105-.439 2.164-1.22 2.945l5.891 5.892a12.5 12.5 0 0 0 3.663-8.837zM66.667 75h-12.5v8.333h12.5zm5.388 7.112a4.17 4.17 0 0 1-1.22-2.945H62.5c0 3.191 1.22 6.4 3.662 8.837zm-1.22-2.945c0-1.105.438-2.165 1.22-2.946l-5.892-5.892a12.5 12.5 0 0 0-3.662 8.838zm-48.78 2.945a4.17 4.17 0 0 1-1.22-2.945H12.5c0 3.191 1.22 6.4 3.662 8.837zm-1.22-2.945c0-1.105.439-2.165 1.22-2.946l-5.892-5.892a12.5 12.5 0 0 0-3.662 8.838zM54.165 75H33.334v8.333h20.834zm-26.22 1.22a4.13 4.13 0 0 1 1.22 2.947H37.5c0-3.192-1.221-6.4-3.663-8.838zm1.22 2.947c0 1.105-.439 2.164-1.22 2.945l5.891 5.892a12.5 12.5 0 0 0 3.663-8.837zM87.5 70.833A4.166 4.166 0 0 1 83.333 75v8.333a12.5 12.5 0 0 0 12.5-12.5zM75 41.667a12.5 12.5 0 0 1 12.5 12.5h8.333A20.833 20.833 0 0 0 75 33.333zM4.167 70.833a12.5 12.5 0 0 0 12.5 12.5V75a4.167 4.167 0 0 1-4.167-4.167z"/></svg>
